static/logos/angellistTalent-glyph-color.svg

<svg width="35" height="50" viewBox="0 0 35 50" fill="none" xmlns="http://www.w3.org/2000/svg">
<path d="M27.9765 20.7968C29.9435 21.1727 31.338 22.0205 32.1602 23.3402C32.9825 24.6598 33.3877 26.7353 33.3758 29.5667C33.3758 35.1933 31.7117 39.7922 28.3837 43.3632C25.0555 46.9343 20.8008 48.7338 15.6198 48.7618C13.5879 48.7648 11.573 48.3845 9.67757 47.6402C7.83667 46.9423 6.15143 45.8778 4.72077 44.509C3.26363 43.19 2.0627 41.605 1.18019 39.8362C0.408763 38.2718 0.00477912 36.5472 0 34.7973C0 32.8778 0.405198 31.3942 1.2156 30.3465C2.21188 29.1925 3.57613 28.4323 5.06892 28.199C4.78875 27.5537 4.54447 26.8927 4.3372 26.2195C4.2075 25.8197 4.13012 25.4042 4.10707 24.9838C4.10707 23.976 4.62832 22.9483 5.67082 21.9005C6.69758 20.8508 7.68305 20.329 8.6036 20.329C9.02915 20.334 9.45128 20.4068 9.8546 20.5448C10.3835 20.7302 10.8918 20.9715 11.3711 21.2647C9.68347 16.4019 8.4541 12.6469 7.68305 9.99952C6.91592 7.35417 6.50285 5.52463 6.50285 4.52288C6.50285 3.13722 6.733 2.08148 7.4234 1.25369C8.26133 0.23994 9.51825 0 10.7279 0C13.1709 0 14.0384 2.12947 18.2575 14.0665C18.8477 15.6681 19.2253 16.9098 19.5145 17.7797C19.7563 17.0898 20.1045 16.106 20.5353 14.8343C23.6982 5.54862 25.0437 0.905773 28.7023 0.905773C29.2063 0.884118 29.7087 0.976772 30.1732 1.17702C30.6375 1.37726 31.0522 1.68007 31.3872 2.06348C32.0893 2.9321 32.4472 4.03595 32.3903 5.15872C32.3903 6.14247 32.0245 7.93603 31.2868 10.5574C30.5493 13.1787 29.4693 16.5739 27.9765 20.7968ZM4.37262 34.4555C4.67947 34.8393 5.10433 35.3972 5.65312 36.129C7.10475 38.1645 8.44427 39.1803 9.67167 39.1763C10.0803 39.1807 10.4773 39.0383 10.7928 38.7743C10.933 38.6835 11.0507 38.561 11.1367 38.4165C11.2226 38.2718 11.2746 38.109 11.2885 37.9405C11.193 37.3398 10.9673 36.7682 10.6276 36.267C10.0913 35.3393 9.48568 34.455 8.81603 33.6217C8.16357 32.7283 7.43707 31.8935 6.64448 31.1263C6.27672 30.7142 5.78483 30.4378 5.24595 30.3405C4.82027 30.3668 4.40653 30.4938 4.03772 30.7115C3.6689 30.9292 3.35518 31.2315 3.1216 31.5942C2.47048 32.4382 2.1265 33.485 2.14795 34.5575C2.17693 35.6142 2.4074 36.6552 2.82655 37.6227C3.32617 38.8388 3.98517 39.981 4.78568 41.0178C6.04642 42.7528 7.7029 44.1505 9.61267 45.0908C11.6018 46.0548 13.7822 46.5412 15.9857 46.5125C18.023 46.5522 20.044 46.1365 21.906 45.2948C23.7678 44.4532 25.4252 43.206 26.7608 41.6417C29.6523 38.3905 31.096 34.3215 31.0922 29.4347C31.1243 28.2262 31.0153 27.018 30.7677 25.8355C30.6152 25.0912 30.2227 24.4198 29.6523 23.928C28.7553 23.1642 27.0048 22.4823 24.4005 21.8825C21.7238 21.2725 18.9885 20.9687 16.2453 20.9768C15.6587 20.924 15.071 21.065 14.5695 21.3787C14.3892 21.554 14.2508 21.769 14.1649 22.007C14.0789 22.2452 14.0478 22.5002 14.0738 22.7523C14.0738 24.272 14.9078 25.3717 16.5758 26.0515C18.2438 26.7313 20.9445 27.0713 24.6778 27.0713H26.0292C26.1715 27.0678 26.3128 27.0978 26.4418 27.1593C26.5708 27.2207 26.6842 27.3117 26.7727 27.4252C26.9867 27.7377 27.1168 28.1017 27.1503 28.481C26.4527 29.0092 25.6727 29.4147 24.843 29.6807C23.9035 30.0242 23.008 30.4813 22.1758 31.0423C20.8963 31.9802 19.8148 33.1693 18.9952 34.5395C18.2665 35.6843 17.8585 37.0095 17.815 38.3725C17.8443 39.282 18.0157 40.181 18.3225 41.0358C18.5612 41.657 18.7333 42.3027 18.8358 42.9613V43.1953L18.771 43.4952C18.2718 43.4455 17.7953 43.2592 17.3922 42.956C16.989 42.6528 16.6742 42.2442 16.4814 41.7737C15.8636 40.4172 15.5742 38.9302 15.6375 37.4367V37.1308C15.4897 37.273 15.3177 37.3867 15.13 37.4667C14.957 37.535 14.7728 37.5695 14.5872 37.5687C14.3895 37.5703 14.192 37.5543 13.9971 37.5207C13.82 37.4847 13.6194 37.4367 13.407 37.3707C13.4719 37.607 13.5212 37.8475 13.5545 38.0905C13.5854 38.273 13.6031 38.4573 13.6076 38.6423C13.6095 39.0457 13.5249 39.4445 13.3598 39.8112C13.1948 40.178 12.9531 40.5037 12.6516 40.7658C12.036 41.3497 11.2216 41.6678 10.3798 41.6537C8.99503 41.6537 7.58863 40.9678 6.1606 39.5962C4.73257 38.2245 4.01855 36.8788 4.01855 35.5592C4.01637 35.3383 4.04417 35.1183 4.10117 34.9053C4.16283 34.735 4.2617 34.5813 4.39032 34.4555H4.37262ZM14.2508 35.2592C14.4478 35.2548 14.6415 35.2063 14.8179 35.1172C14.9944 35.028 15.1493 34.9003 15.2717 34.7433C15.5636 34.4447 15.7307 34.0427 15.7378 33.6217C15.5656 32.5973 15.26 31.6008 14.8291 30.6583C14.2164 29.0723 13.4701 27.543 12.5985 26.0875C12.0773 25.1497 11.4209 24.2965 10.6512 23.5562C10.1649 23.0643 9.51857 22.7698 8.83373 22.7283C8.53265 22.7612 8.24097 22.8545 7.97558 23.0028C7.7102 23.151 7.47638 23.3513 7.28768 23.5922C6.81552 24.0173 6.52017 24.6093 6.46155 25.2477C6.56513 26.0983 6.84683 26.9165 7.28768 27.6472C7.92135 28.8517 8.65995 29.9958 9.49463 31.0663C10.2917 32.1907 11.2079 33.2227 12.2268 34.1435C13.0824 34.8933 13.7787 35.2592 14.2685 35.2592H14.2508ZM17.4787 19.0633L13.9381 8.61387C13.3751 6.818 12.6583 5.07575 11.796 3.40715C11.2885 2.59735 10.7397 2.20745 10.1496 2.20745C9.93472 2.20112 9.72132 2.24612 9.5266 2.33883C9.33188 2.43157 9.16127 2.56942 9.02847 2.74132C8.72343 3.1551 8.57098 3.6646 8.5977 4.18097C8.5977 5.2047 8.9911 6.99027 9.77788 9.53763C10.5647 12.085 11.7173 15.4222 13.2358 19.5492C13.3617 19.3078 13.5724 19.1237 13.8259 19.0333C14.142 18.9198 14.4765 18.8688 14.8114 18.8833L15.6021 18.9133C15.9503 18.9433 16.5994 18.9973 17.4963 19.0873L17.4787 19.0633ZM21.2022 29.2127C20.3017 29.1695 19.4048 29.0673 18.5172 28.9068C17.6933 28.7567 16.8838 28.5338 16.0978 28.241C16.446 28.9548 16.7647 29.6687 17.036 30.3825C17.3048 31.0713 17.5315 31.7765 17.7147 32.494C18.224 31.8542 18.7782 31.2528 19.3728 30.6943C19.9468 30.1562 20.5647 29.6687 21.2198 29.2367L21.2022 29.2127ZM25.5865 20.215C27.054 16.156 28.2007 12.8008 29.0268 10.1495C29.853 7.50413 30.2602 5.88453 30.2602 5.27868C30.2933 4.7447 30.15 4.21475 29.853 3.77307C29.7183 3.59865 29.5448 3.45927 29.3468 3.36643C29.1488 3.27362 28.932 3.23 28.714 3.2392C28.124 3.2392 27.4748 3.75507 26.8375 4.7928C25.9633 6.38213 25.2572 8.06107 24.7308 9.80157L21.45 19.4892L25.5865 20.215Z" fill="black"/>
</svg>

<svg xmlns="http://www.w3.org/2000/svg" width="44.8" height="64" fill="none" viewBox="0 0 35 50"><path fill="#000" d="M27.977 20.797c1.966.376 3.361 1.223 4.183 2.543.823 1.32 1.228 3.395 1.216 6.227 0 5.626-1.664 10.225-4.992 13.796-3.329 3.571-7.583 5.37-12.764 5.399a16.189 16.189 0 0 1-5.942-1.122A14.72 14.72 0 0 1 4.72 44.51a15.839 15.839 0 0 1-3.54-4.673A11.467 11.467 0 0 1 0 34.797c0-1.92.405-3.403 1.216-4.45a6.398 6.398 0 0 1 3.853-2.148 19.036 19.036 0 0 1-.732-1.98c-.13-.4-.207-.815-.23-1.235 0-1.008.521-2.036 1.564-3.084 1.027-1.05 2.012-1.571 2.933-1.571a4.01 4.01 0 0 1 1.25.216 7.939 7.939 0 0 1 1.517.72C9.683 16.402 8.454 12.647 7.683 10c-.767-2.646-1.18-4.475-1.18-5.477 0-1.386.23-2.442.92-3.27C8.261.24 9.518 0 10.728 0c2.443 0 3.31 2.13 7.53 14.066.59 1.602.967 2.844 1.257 3.714.241-.69.59-1.674 1.02-2.946C23.698 5.55 25.044.906 28.702.906a3.35 3.35 0 0 1 1.471.271c.465.2.88.503 1.214.886A4.56 4.56 0 0 1 32.39 5.16c0 .983-.365 2.777-1.103 5.398-.738 2.622-1.818 6.017-3.31 10.24ZM4.373 34.456c.306.383.731.941 1.28 1.673 1.452 2.035 2.791 3.051 4.019 3.047.408.005.805-.138 1.12-.402a1.09 1.09 0 0 0 .497-.834 4.142 4.142 0 0 0-.661-1.673 21.005 21.005 0 0 0-1.812-2.645 19.38 19.38 0 0 0-2.172-2.496 2.461 2.461 0 0 0-1.398-.786c-.426.027-.84.154-1.208.372-.37.217-.683.52-.916.882a4.699 4.699 0 0 0-.974 2.963 8.284 8.284 0 0 0 .679 3.066 14.69 14.69 0 0 0 1.959 3.395 13.153 13.153 0 0 0 4.827 4.073c1.989.964 4.17 1.45 6.373 1.422a13.72 13.72 0 0 0 5.92-1.218 13.933 13.933 0 0 0 4.855-3.653c2.891-3.252 4.335-7.32 4.331-12.207a15.55 15.55 0 0 0-.324-3.6 3.425 3.425 0 0 0-1.116-1.907c-.897-.764-2.647-1.446-5.252-2.046a36.217 36.217 0 0 0-8.155-.905 2.702 2.702 0 0 0-1.676.402 1.686 1.686 0 0 0-.496 1.374c0 1.519.835 2.619 2.503 3.299 1.668.68 4.369 1.02 8.102 1.02h1.351a.907.907 0 0 1 .744.353c.214.313.344.677.377 1.056a7.734 7.734 0 0 1-2.307 1.2c-.94.343-1.835.8-2.667 1.361a11.921 11.921 0 0 0-3.18 3.497 7.591 7.591 0 0 0-1.181 3.834c.03.909.2 1.808.508 2.663.238.621.41 1.267.513 1.925v.234l-.065.3c-.5-.05-.976-.236-1.379-.539a2.813 2.813 0 0 1-.91-1.182 9.497 9.497 0 0 1-.845-4.337v-.306c-.147.142-.32.256-.507.336a1.46 1.46 0 0 1-.543.102 3.316 3.316 0 0 1-.59-.048 6.052 6.052 0 0 1-.59-.15c.065.236.114.476.148.72.03.182.048.366.053.551.002.404-.083.802-.248 1.17a2.77 2.77 0 0 1-.708.954 3.222 3.222 0 0 1-2.272.888c-1.385 0-2.791-.686-4.22-2.058C4.734 38.225 4.02 36.88 4.02 35.56c-.003-.22.025-.44.082-.654a1.2 1.2 0 0 1 .29-.45h-.018Zm9.878.803a1.323 1.323 0 0 0 1.02-.516c.293-.298.46-.7.467-1.121a11.853 11.853 0 0 0-.909-2.964 29.797 29.797 0 0 0-2.23-4.57 10.771 10.771 0 0 0-1.948-2.532 2.794 2.794 0 0 0-1.817-.828 2.263 2.263 0 0 0-.858.275c-.266.148-.5.348-.688.59a2.54 2.54 0 0 0-.826 1.655c.103.85.385 1.668.826 2.4a22.899 22.899 0 0 0 2.207 3.418 18.806 18.806 0 0 0 2.732 3.078c.855.75 1.552 1.115 2.041 1.115h-.017Zm3.228-16.196-3.54-10.45a32.551 32.551 0 0 0-2.143-5.206c-.507-.81-1.056-1.2-1.646-1.2a1.356 1.356 0 0 0-1.122.534 2.233 2.233 0 0 0-.43 1.44c0 1.024.393 2.81 1.18 5.357.787 2.547 1.94 5.884 3.458 10.011.126-.241.336-.425.59-.516.316-.113.65-.164.985-.15l.791.03c.348.03.997.084 1.894.174l-.017-.024Zm3.723 10.15a20.65 20.65 0 0 1-2.685-.306 14.244 14.244 0 0 1-2.42-.666c.349.714.668 1.428.939 2.142.269.688.495 1.393.679 2.111.509-.64 1.063-1.241 1.658-1.8a13.845 13.845 0 0 1 1.847-1.457l-.018-.024Zm4.384-8.998c1.468-4.059 2.615-7.414 3.44-10.066.827-2.645 1.234-4.264 1.234-4.87a2.43 2.43 0 0 0-.407-1.506 1.355 1.355 0 0 0-1.139-.534c-.59 0-1.24.516-1.877 1.554a26.025 26.025 0 0 0-2.106 5.009l-3.281 9.687 4.137.726Z"/></svg>
